src/images_karasa_jaga_svg/cmd/lc_tablenumberformatdialog.svg

<svg height="24" viewBox="0 0 6.3499999 6.3500002" width="24" xmlns="http://www.w3.org/2000/svg" xmlns:xlink="http://www.w3.org/1999/xlink"><linearGradient id="a" gradientTransform="matrix(.99999998 0 0 1.0378333 61.438469 -2.325453)" gradientUnits="userSpaceOnUse" x1="67.287323" x2="73.105423" xlink:href="#b" y1=".0018" y2="122.1819"/><linearGradient id="b" gradientTransform="matrix(1.018741 0 0 1.0187411 0 -2.282673)" gradientUnits="userSpaceOnUse" x1="67.287323" x2="73.105423" y1=".0018" y2="122.1819"><stop offset="0"/><stop offset="1" stop-color="#333"/></linearGradient><linearGradient id="c" gradientTransform="matrix(.99999998 0 0 1.0378333 0 -2.325453)" gradientUnits="userSpaceOnUse" x1="67.287323" x2="73.105423" xlink:href="#b" y1=".0018" y2="122.1819"/><linearGradient id="d" gradientUnits="userSpaceOnUse" x1="21.805742" x2="21.805742" y1="-3.003047" y2="19.996623"><stop offset="0" stop-color="#fff"/><stop offset="1" stop-color="#555"/></linearGradient><linearGradient id="e" gradientTransform="matrix(.28123848 0 0 .37648631 .039471 260.72313)" gradientUnits="userSpaceOnUse" x1="46.048" x2="46.048" y1="128.01709" y2="16.6203"><stop offset="0" stop-color="#c7cdd7"/><stop offset="1" stop-color="#fff"/></linearGradient><g transform="matrix(.17187487 0 0 .17187487 .264585 -44.962374)"><path d="m1.539372 267.75192h30.787445v23.09058h-30.787445z" fill="url(#e)"/><path d="m1 3v1 2.9960938 1 3.0019532.998047 2.998047.003906.994141.011718 2.990235 1.005859h1 3.0019531.9980469 6 .998047 5.001953.998047 3.001953 1v-1.005859-2.990235-9.0078122-3.9960938h-4.001953-.998047-5.001953-.998047-6-.9980469-3.0019531zm1 1h3.0019531.9980469 6 .998047 5.001953.998047 3.001953v2.9960938 1 3.0019532.998047 2.998047 1.009765 2.992188.003906h-20v-.003906-2.992188-1.009765-2.998047-.998047-3.0019532-1z" fill="url(#d)" stroke-width=".649606" transform="matrix(1.5393951 0 0 1.5393951 -1.539405 261.59946)"/></g><g transform="matrix(.04547526 0 0 .04547526 .264624 .264542)"><g stroke-width="1.939832"><path d="m111.62691 34.9104-3.65482 17.4543h7.08343v5.8181h-8.07358l-2.36114 11.6362h7.99741v5.375227h-8.9114l-2.97047 17.595878h-5.788607l2.894302-17.595878h-9.444565l-2.970469 17.595878h-5.788604l2.894303-17.595878h-7.692751v-5.375227h8.682906l2.361142-11.6362h-8.225912v-5.8181h9.216068l3.654816-17.4543h5.788604l-3.654815 17.4543h9.520732l3.57865-17.4543zm-10.43358 23.2724h-9.444563l-2.437307 11.6362h9.520731z" fill="url(#a)"/><g fill="url(#c)"><path d="m50.18844 34.9104-3.654816 17.4543h7.083425v5.8181h-8.07358l-2.361142 11.6362h7.997414v5.375227h-8.911404l-2.970468 17.595878h-5.788605l2.894302-17.595878h-9.444565l-2.970469 17.595878h-5.788604l2.894303-17.595878h-7.692751v-5.375227h8.682906l2.361142-11.6362h-8.225912v-5.8181h9.216068l3.654816-17.4543h5.788604l-3.654815 17.4543h9.520731l3.57865-17.4543zm-10.433576 23.2724h-9.444566l-2.437307 11.6362h9.520731z"/><path d="m68.746681 82.98822v8.220935h-7.921249v-8.220935z"/></g></g><path d="m58.181 81.4552h11.6362v11.6362h-11.6362z" fill="#1f1f1f"/></g></svg>

<?xml version="1.0" encoding="UTF-8" standalone="no"?>
<svg
   xmlns:dc="http://purl.org/dc/elements/1.1/"
   xmlns:cc="http://creativecommons.org/ns#"
   xmlns:rdf="http://www.w3.org/1999/02/22-rdf-syntax-ns#"
   xmlns:svg="http://www.w3.org/2000/svg"
   xmlns="http://www.w3.org/2000/svg"
   xmlns:xlink="http://www.w3.org/1999/xlink"
   xmlns:sodipodi="http://sodipodi.sourceforge.net/DTD/sodipodi-0.dtd"
   xmlns:inkscape="http://www.inkscape.org/namespaces/inkscape"
   enable-background="new 0 0 128 128"
   height="128"
   viewBox="0 0 128 128"
   width="128"
   version="1.1"
   id="svg11"
   sodipodi:docname="lc_tablenumberformatdialog.svg"
   inkscape:version="0.92.3 (unknown)"
   inkscape:export-filename="/home/rizmut/Dokumen/Rizmut/Github/libreoffice-style-karasa-jaga/build/images_karasa_jaga/cmd/lc_tablenumberformatdialog.png"
   inkscape:export-xdpi="16.5"
   inkscape:export-ydpi="16.5">
  <metadata
     id="metadata17">
    <rdf:RDF>
      <cc:Work
         rdf:about="">
        <dc:format>image/svg+xml</dc:format>
        <dc:type
           rdf:resource="http://purl.org/dc/dcmitype/StillImage" />
        <dc:title></dc:title>
      </cc:Work>
    </rdf:RDF>
  </metadata>
  <defs
     id="defs15">
    <linearGradient
       inkscape:collect="always"
       xlink:href="#a"
       id="linearGradient835"
       gradientUnits="userSpaceOnUse"
       gradientTransform="matrix(0.99999998,0,0,1.0378333,0,-2.3254527)"
       x1="67.287323"
       y1=".0018"
       x2="73.105423"
       y2="122.1819" />
    <linearGradient
       inkscape:collect="always"
       xlink:href="#a"
       id="linearGradient837"
       gradientUnits="userSpaceOnUse"
       gradientTransform="matrix(0.99999998,0,0,1.0378333,0,-2.3254527)"
       x1="67.287323"
       y1=".0018"
       x2="73.105423"
       y2="122.1819" />
    <linearGradient
       inkscape:collect="always"
       xlink:href="#a"
       id="linearGradient848"
       gradientUnits="userSpaceOnUse"
       gradientTransform="matrix(0.99999998,0,0,1.0378333,61.438469,-2.3254527)"
       x1="67.287323"
       y1=".0018"
       x2="73.105423"
       y2="122.1819" />
  </defs>
  <sodipodi:namedview
     pagecolor="#ffffff"
     bordercolor="#666666"
     borderopacity="1"
     objecttolerance="10"
     gridtolerance="10"
     guidetolerance="10"
     inkscape:pageopacity="0"
     inkscape:pageshadow="2"
     inkscape:window-width="1366"
     inkscape:window-height="706"
     id="namedview13"
     showgrid="true"
     inkscape:snap-smooth-nodes="true"
     inkscape:zoom="3.6875"
     inkscape:cx="5.2525172"
     inkscape:cy="59.700133"
     inkscape:window-x="0"
     inkscape:window-y="0"
     inkscape:window-maximized="1"
     inkscape:current-layer="svg11">
    <inkscape:grid
       type="xygrid"
       id="grid824"
       spacingx="5.8181"
       spacingy="5.8181"
       empspacing="1" />
  </sodipodi:namedview>
  <linearGradient
     id="a"
     gradientUnits="userSpaceOnUse"
     x1="67.287323"
     x2="73.105423"
     y1=".0018"
     y2="122.1819"
     gradientTransform="matrix(1.018741,0,0,1.0187411,0,-2.2826731)">
    <stop
       offset="0"
       id="stop2" />
    <stop
       offset="1"
       stop-color="#333"
       id="stop4" />
  </linearGradient>
  <path
     sodipodi:nodetypes="ccccccccccccccccccccccccccccczcccz"
     d="m 111.62691,34.9104 -3.65482,17.4543 h 7.08343 v 5.8181 h -8.07358 L 104.6208,69.819 h 7.99741 v 5.375227 h -8.9114 l -2.97047,17.595878 H 94.947733 L 97.842035,75.194227 H 88.39747 L 85.427001,92.790105 H 79.638397 L 82.5327,75.194227 H 74.839949 V 69.819 h 8.682906 l 2.361142,-11.6362 h -8.225912 v -5.8181 h 9.216068 l 3.654816,-17.4543 h 5.788604 l -3.654815,17.4543 h 9.520732 l 3.57865,-17.4543 z M 101.19333,58.1828 H 91.748767 L 89.31146,69.819 h 9.520731 z"
     style="font-size:medium;font-family:FreeSans;letter-spacing:0;word-spacing:0;fill:url(#linearGradient848);stroke-width:1.93983161"
     id="path846"
     inkscape:connector-curvature="0" />
  <path
     inkscape:connector-curvature="0"
     id="path828"
     style="font-size:medium;font-family:FreeSans;letter-spacing:0;word-spacing:0;fill:url(#linearGradient835);stroke-width:1.93983161"
     d="m 50.18844,34.9104 -3.654816,17.4543 h 7.083425 v 5.8181 h -8.07358 L 43.182327,69.819 h 7.997414 v 5.375227 H 42.268337 L 39.297869,92.790105 H 33.509264 L 36.403566,75.194227 H 26.959001 L 23.988532,92.790105 H 18.199928 L 21.094231,75.194227 H 13.40148 V 69.819 h 8.682906 l 2.361142,-11.6362 h -8.225912 v -5.8181 h 9.216068 L 29.0905,34.9104 h 5.788604 L 31.224289,52.3647 H 40.74502 L 44.32367,34.9104 Z M 39.754864,58.1828 H 30.310298 L 27.872991,69.819 h 9.520731 z"
     sodipodi:nodetypes="ccccccccccccccccccccccccccccczcccz" />
  <path
     inkscape:connector-curvature="0"
     id="path830"
     style="font-size:medium;font-family:FreeSans;letter-spacing:0;word-spacing:0;fill:url(#linearGradient837);stroke-width:1.93983161"
     d="m 68.746681,82.98822 v 8.220935 H 60.825432 V 82.98822 Z" />
  <rect
     style="opacity:1;fill:#1f1f1f;fill-opacity:1;stroke:none;stroke-width:5.81799984;stroke-linecap:round;stroke-linejoin:round;stroke-miterlimit:4;stroke-dasharray:none;stroke-dashoffset:0;stroke-opacity:1"
     id="rect826"
     width="11.6362"
     height="11.6362"
     x="58.181"
     y="81.4552" />
</svg>
